dist/flags/s/498.svg

<svg width="16" height="12" viewBox="0 0 16 12" fill="none" xmlns="http://www.w3.org/2000/svg">
<mask id="mask0" mask-type="alpha" maskUnits="userSpaceOnUse" x="0" y="0" width="16" height="12">
<rect width="16" height="12" fill="white"/>
</mask>
<g mask="url(#mask0)">
<path fill-rule="evenodd" clip-rule="evenodd" d="M11 0H16V12H11V0Z" fill="#D9071E"/>
<path fill-rule="evenodd" clip-rule="evenodd" d="M0 0H6V12H0V0Z" fill="#3D58DB"/>
<path fill-rule="evenodd" clip-rule="evenodd" d="M5 0H11V12H5V0Z" fill="#FBCD17"/>
<path fill-rule="evenodd" clip-rule="evenodd" d="M10.8592 9.80707L10.3327 10.0947L8.58738 6.90035L9.11392 6.61267L10.8592 9.80707ZM5.25673 9.88388L5.78327 10.1716L7.52855 6.97716L7.00201 6.68948L5.25673 9.88388Z" fill="#FD1900"/>
<path fill-rule="evenodd" clip-rule="evenodd" d="M5.68903 4.69449V7.47015C5.68903 8.08674 5.1581 8.89031 4.89034 9.18925C4.62257 9.4882 4.09076 10.1731 4.09076 10.1731V2.70413C4.09076 1.86635 4.89034 1.57856 4.89034 1.57856C4.89034 1.57856 5.55425 1.70991 5.68903 2.70413V3.67312C5.89452 3.83494 6.5807 4.33123 7.02397 4.12173C7.55028 3.87298 7.73207 3.1595 7.73207 3.1595C7.73207 3.1595 7.68286 2.43955 7.46683 2.43955C7.25081 2.43955 7.23355 1.42542 8.06085 1.42542C8.88816 1.42542 8.9846 1.81632 8.9846 2.12794C8.9846 2.29128 8.85367 2.55343 8.72906 2.80289C8.61596 3.02933 8.50808 3.24532 8.50808 3.36748C8.50808 3.62422 8.70153 4.12173 8.9846 4.12173C9.18313 4.12173 10.1381 3.75073 10.6908 3.52912V2.70413C10.8255 1.70991 11.4895 1.57856 11.4895 1.57856C11.4895 1.57856 12.289 1.86635 12.289 2.70413V10.1731C12.289 10.1731 11.7572 9.4882 11.4895 9.18925C11.2217 8.89031 10.6908 8.08674 10.6908 7.47015V4.69449H5.68903ZM6.57509 9.91606C7.11589 9.56395 7.90696 7.98505 7.90696 7.98505L8.16961 8.04606C8.16961 8.04606 8.57065 9.09189 9.74982 9.91606C8.49292 10.2515 8.16961 10.925 8.16961 10.925C8.16961 10.3862 6.57509 9.91606 6.57509 9.91606ZM6.488 8.91664C6.85251 8.91664 7.148 8.63682 7.148 8.29164C7.148 7.94646 6.85251 7.66664 6.488 7.66664C6.12349 7.66664 5.828 7.94646 5.828 8.29164C5.828 8.63682 6.12349 8.91664 6.488 8.91664ZM10.36 8.29164C10.36 8.63682 10.0645 8.91664 9.69999 8.91664C9.33549 8.91664 9.03999 8.63682 9.03999 8.29164C9.03999 7.94646 9.33549 7.66664 9.69999 7.66664C10.0645 7.66664 10.36 7.94646 10.36 8.29164Z" fill="#A77B3B"/>
<path d="M12.57 5.20386L13.0289 5.40223L11.1592 9.72819L10.7002 9.52981L12.57 5.20386Z" fill="#FDFF00"/>
<path opacity="0.3" fill-rule="evenodd" clip-rule="evenodd" d="M5.51999 3.91675H10.8V7.73619C10.8 7.73619 9.45644 8.14087 8.15999 8.80494C7.20297 8.09499 5.51999 7.73619 5.51999 7.73619V3.91675Z" fill="#E1E5E8"/>
<mask id="mask1" mask-type="alpha" maskUnits="userSpaceOnUse" x="5" y="3" width="6" height="6">
<path fill-rule="evenodd" clip-rule="evenodd" d="M5.51999 3.91675H10.8V7.73619C10.8 7.73619 9.45644 8.14087 8.15999 8.80494C7.20297 8.09499 5.51999 7.73619 5.51999 7.73619V3.91675Z" fill="white"/>
</mask>
<g mask="url(#mask1)">
<rect x="5.51999" y="6.41675" width="5.28" height="2.5" fill="#3D58DB"/>
<rect x="5.51999" y="3.91675" width="5.28" height="2.5" fill="#FD1900"/>
<path fill-rule="evenodd" clip-rule="evenodd" d="M7.89332 5.04118L7.49315 5.0743L7.72395 4.76297L7.47799 4.44055L7.8802 4.49234L8.03442 4.1368L8.20582 4.49992L8.60599 4.4668L8.3752 4.77813L8.62115 5.10055L8.21895 5.04876L8.06473 5.4043L7.89332 5.04118Z" fill="#FDFF00"/>
<path fill-rule="evenodd" clip-rule="evenodd" d="M7.17499 4.33588C7.17499 4.33588 6.10004 4.98988 6.45835 5.45934C6.81667 5.92881 7.26771 5.98891 7.26771 5.98891C7.26771 5.98891 6.16811 7.63856 8.10346 8.581C10.1755 7.6712 9.08578 5.98891 9.08578 5.98891C9.08578 5.98891 9.7236 5.8478 9.8513 5.34019C9.979 4.83258 9.01761 4.25037 9.01761 4.25037C9.01761 4.25037 9.61743 5.11977 9.48049 5.34019C9.34356 5.56061 8.61 5.78502 8.10346 5.78502C7.59691 5.78502 6.81471 5.64279 6.68847 5.25762C6.56223 4.87245 7.17499 4.33588 7.17499 4.33588Z" fill="#FDFF00"/>
</g>
<path fill-rule="evenodd" clip-rule="evenodd" d="M2.36832 5.76452C2.36832 5.76452 2.89538 6.38763 3.39166 6.1839C3.88794 5.98017 3.76762 5.24976 3.76762 5.24976L3.39166 5.59082H3.07163V5.76452L2.82168 5.59082V5.76452H2.36832ZM2.72478 6.72205C2.72478 6.72205 3.36717 7.28232 3.79997 7.12399C4.23276 6.96567 4.12408 6.20729 4.12408 6.20729L3.74812 6.54835H3.42809V6.72205L3.17814 6.54835V6.72205H2.72478ZM4.45468 7.99349C4.02189 8.15182 3.37949 7.59155 3.37949 7.59155H3.83286V7.41785L4.08281 7.59155V7.41785H4.40284L4.7788 7.07679C4.7788 7.07679 4.88748 7.83517 4.45468 7.99349Z" fill="#048F02"/>
<path fill-rule="evenodd" clip-rule="evenodd" d="M6.98967 1.12427H6.48967V1.42206H6.25433V1.92206H6.48967V2.79438H6.98967V1.92206H7.27575V1.42206H6.98967V1.12427Z" fill="#FDFF00"/>
<path fill-rule="evenodd" clip-rule="evenodd" d="M7.57905 1.69226L6.42097 1.99059L7.57905 2.35653V1.69226Z" fill="#DB4400"/>
</g>
</svg>

<svg width="16" height="12" fill="none" xmlns="http://www.w3.org/2000/svg">
  <mask id="a" maskUnits="userSpaceOnUse" x="0" y="0" width="16" height="12">
    <path fill="#fff" d="M0 0h16v12H0z"/>
  </mask>
  <g mask="url(#a)">
    <path fill-rule="evenodd" clip-rule="evenodd" d="M11 0h5v12h-5V0z" fill="#D9071E"/>
    <path fill-rule="evenodd" clip-rule="evenodd" d="M0 0h6v12H0V0z" fill="#3D58DB"/>
    <path fill-rule="evenodd" clip-rule="evenodd" d="M5 0h6v12H5V0z" fill="#FBCD17"/>
    <path fill-rule="evenodd" clip-rule="evenodd" d="M10.86 9.807l-.527.288L8.587 6.9l.527-.287 1.745 3.194zm-5.603.077l.526.288L7.53 6.977l-.527-.288-1.745 3.195z" fill="#FD1900"/>
    <path fill-rule="evenodd" clip-rule="evenodd" d="M5.689 4.695V7.47c0 .617-.53 1.42-.799 1.72-.267.298-.8.983-.8.983V2.704c0-.838.8-1.125.8-1.125s.664.13.799 1.125v.97c.206.161.892.657 1.335.448.526-.249.708-.962.708-.962s-.05-.72-.265-.72c-.216 0-.233-1.015.594-1.015s.924.391.924.703c0 .163-.131.425-.256.675-.113.226-.22.442-.22.565 0 .256.193.754.476.754.198 0 1.153-.371 1.706-.593v-.825c.134-.994.798-1.125.798-1.125s.8.287.8 1.125v7.47s-.532-.686-.8-.985c-.267-.299-.798-1.102-.798-1.719V4.695H5.689zm.886 5.221c.54-.352 1.332-1.93 1.332-1.93l.263.06s.4 1.046 1.58 1.87c-1.257.335-1.58 1.01-1.58 1.01 0-.54-1.595-1.01-1.595-1.01zm-.087-1c.365 0 .66-.28.66-.624 0-.346-.295-.625-.66-.625-.365 0-.66.28-.66.625s.295.625.66.625zm3.872-.624c0 .345-.295.625-.66.625-.365 0-.66-.28-.66-.625 0-.346.295-.625.66-.625.365 0 .66.28.66.625z" fill="#A77B3B"/>
    <path d="M12.57 5.204l.459.198-1.87 4.326-.459-.198 1.87-4.326z" fill="#FDFF00"/>
    <path opacity=".3" fill-rule="evenodd" clip-rule="evenodd" d="M5.52 3.917h5.28v3.82s-1.344.404-2.64 1.068c-.957-.71-2.64-1.069-2.64-1.069v-3.82z" fill="#E1E5E8"/>
    <mask id="b" maskUnits="userSpaceOnUse" x="5" y="3" width="6" height="6">
      <path fill-rule="evenodd" clip-rule="evenodd" d="M5.52 3.917h5.28v3.82s-1.344.404-2.64 1.068c-.957-.71-2.64-1.069-2.64-1.069v-3.82z" fill="#fff"/>
    </mask>
    <g mask="url(#b)">
      <path fill="#3D58DB" d="M5.52 6.417h5.28v2.5H5.52z"/>
      <path fill="#FD1900" d="M5.52 3.917h5.28v2.5H5.52z"/>
      <path fill-rule="evenodd" clip-rule="evenodd" d="M7.893 5.041l-.4.033.231-.311-.246-.323.402.052.154-.355.172.363.4-.033-.23.311.245.322-.402-.051-.154.355-.172-.363z" fill="#FDFF00"/>
      <path fill-rule="evenodd" clip-rule="evenodd" d="M7.175 4.336S6.1 4.99 6.458 5.459c.359.47.81.53.81.53s-1.1 1.65.836 2.592c2.072-.91.982-2.592.982-2.592s.638-.141.765-.649c.128-.507-.833-1.09-.833-1.09s.6.87.463 1.09c-.137.22-.87.445-1.377.445s-1.29-.142-1.415-.527c-.127-.386.486-.922.486-.922z" fill="#FDFF00"/>
    </g>
    <path fill-rule="evenodd" clip-rule="evenodd" d="M2.368 5.764s.527.624 1.024.42c.496-.204.376-.934.376-.934l-.376.34h-.32v.174l-.25-.173v.173h-.454zm.357.958s.642.56 1.075.402c.433-.158.324-.917.324-.917l-.376.341h-.32v.174l-.25-.174v.174h-.453zm1.73 1.271c-.433.159-1.075-.401-1.075-.401h.453v-.174l.25.174v-.174h.32l.376-.341s.109.758-.324.916z" fill="#048F02"/>
    <path fill-rule="evenodd" clip-rule="evenodd" d="M6.99 1.124h-.5v.298h-.236v.5h.236v.872h.5v-.872h.286v-.5H6.99v-.298z" fill="#FDFF00"/>
    <path fill-rule="evenodd" clip-rule="evenodd" d="M7.58 1.692l-1.159.299 1.158.366v-.665z" fill="#DB4400"/>
  </g>
</svg>
